static/logos/abstract-wordmark-color.svg

<svg width="100" height="26" viewBox="0 0 100 26" fill="none" xmlns="http://www.w3.org/2000/svg">
<g clip-path="url(#clip0_1_3632)">
<path d="M36.2552 6.12561L31.1562 19.5596H33.7628L34.8466 16.4188H40.155L41.221 19.5596H43.8466L38.938 6.12561H36.2552ZM35.4367 14.5165C36.6169 11.2246 37.0928 9.89211 37.5293 8.54185C38.1575 10.5012 38.8047 12.3287 39.5598 14.5165H35.4367Z" fill="black"/>
<path d="M49.9832 9.89845C49.4092 9.89119 48.8417 10.0196 48.3268 10.2732C47.8119 10.5268 47.3642 10.8984 47.02 11.3578V6.12561H44.7891V19.5596H46.9198V18.3223C47.5683 19.2551 48.4426 19.75 49.737 19.75C52.0771 19.75 53.638 17.9226 53.638 14.821C53.638 11.7195 52.2104 9.89845 49.9832 9.89845ZM49.185 17.8934C47.7764 17.8934 46.9578 16.7335 46.9578 14.7208C46.9578 12.9137 47.9096 11.7715 49.2611 11.7715C50.5302 11.7715 51.3157 12.9327 51.3157 14.835C51.3157 16.8388 50.4985 17.8845 49.185 17.8845V17.8934Z" fill="black"/>
<path d="M58.3195 11.514C59.2345 11.514 59.9578 12.0089 60.4337 12.8478L62.0923 11.7234C61.2535 10.3896 59.8626 9.81982 58.3575 9.81982C56.0136 9.81982 54.6773 11.1917 54.6773 12.6777C54.6773 14.1257 55.6101 14.9835 57.0771 15.4404L58.0923 15.764C59.5213 16.2209 59.8449 16.4874 59.8449 17.1168C59.8449 17.6879 59.3119 18.1079 58.3398 18.1079C57.2916 18.1079 56.4159 17.5356 55.921 16.5635L54.1875 17.7056C54.987 18.9061 56.3017 19.8401 58.2484 19.8401C60.6114 19.8401 62.0771 18.5635 62.0771 16.8097C62.0771 15.2868 61.1253 14.5051 59.4489 13.9709L58.4337 13.6663C57.2141 13.2856 56.9108 13.0191 56.9108 12.448C56.9108 11.8769 57.3626 11.514 58.3195 11.514Z" fill="black"/>
<path d="M66.6018 16.6244V11.8757H68.4368V10.0901H66.6018V6.99243H64.3848L64.3416 10.0901H62.8594V11.8757H64.3416V17.066C64.3416 17.9442 64.4761 18.613 64.8759 19.0711C65.2756 19.5292 65.8911 19.7576 66.8213 19.7576C67.3831 19.756 67.9424 19.6839 68.4863 19.5432V17.7665C68.1927 17.875 67.883 17.933 67.57 17.9379C66.8797 17.9442 66.6018 17.6016 66.6018 16.6244Z" fill="black"/>
<path d="M71.8273 11.5482V10.0901H69.6953V19.6078H71.9288V15.1662C71.9288 14.151 72.0963 13.4809 72.425 12.986C72.8387 12.3921 73.4301 12.0329 74.4555 12.0444C74.7324 12.0491 75.0074 12.0918 75.2727 12.1713V10.0901C75.0086 10.0051 74.7329 9.96228 74.4555 9.96315C73.1433 9.96695 72.4009 10.5215 71.8273 11.5482Z" fill="black"/>
<path d="M83.8248 17.0051V13.5787C83.8248 12.0914 83.6255 11.3109 83.0341 10.7576C82.3996 10.1472 81.4897 9.84265 80.194 9.84265C77.7727 9.84265 76.2448 10.9848 76.0925 13.0457L78.2308 13.236C78.3451 12.1878 78.859 11.5965 80.0227 11.5965C80.6141 11.5965 81.0709 11.7234 81.3374 11.9962C81.6039 12.269 81.7004 12.6066 81.7004 13.1383V13.6459C80.194 13.7424 78.3641 14.0089 77.4301 14.4277C76.3057 14.9429 75.6953 15.7437 75.6953 16.9657C75.6953 18.6624 76.9149 19.75 78.6496 19.75C80.0024 19.75 81.0316 19.2741 81.7562 18.3972C81.9631 19.3452 82.6306 19.6954 83.8235 19.6954C84.168 19.7023 84.5113 19.6509 84.8387 19.5431V18.0964C83.9808 18.2513 83.8311 17.7475 83.8248 17.0051ZM81.7004 15.5761C81.6801 16.1091 81.5862 16.6434 81.2803 17.0825C80.8616 17.7107 80.156 18.0736 79.2981 18.0736C78.307 18.0736 77.8489 17.5584 77.8489 16.8731C77.8489 16.3388 78.0773 15.9759 78.6687 15.7094C79.3362 15.3858 80.6141 15.1942 81.7004 15.1371V15.5761Z" fill="black"/>
<path d="M89.9432 17.9657C88.4775 17.9657 87.6006 16.8616 87.6006 14.7677C87.6006 12.6548 88.5917 11.684 89.8848 11.684C90.7795 11.684 91.4648 12.1027 91.7326 13.3591L93.7325 12.6738C93.2935 10.9796 91.999 9.81848 89.9407 9.81848C87.1031 9.81848 85.3125 11.703 85.3125 14.8058C85.3125 17.9276 87.065 19.8312 89.8265 19.8312C91.9838 19.8312 93.2364 18.689 93.7897 17.1091L91.7897 16.4238C91.5625 17.4327 90.9534 17.9657 89.9432 17.9657Z" fill="black"/>
<path d="M98.0289 16.6244V11.8757H99.8627V10.0901H98.0289V6.99243H95.8119L95.7726 10.0901H94.2891V11.8757H95.7764V17.066C95.7764 17.9442 95.9109 18.613 96.3106 19.0711C96.7104 19.5292 97.3259 19.7576 98.2561 19.7576C98.8148 19.7552 99.3712 19.6832 99.9122 19.5432V17.7665C99.619 17.8749 99.3096 17.9329 98.9972 17.9379C98.3094 17.9442 98.0289 17.6016 98.0289 16.6244Z" fill="black"/>
<path d="M12.747 0.126916C2.59471 0.100267 0.0502948 2.632 0.0236451 12.7843C-0.00300468 22.9365 2.52745 25.481 12.6797 25.5076C22.832 25.5343 25.3777 23.0025 25.4044 12.8502C25.431 2.69799 22.8993 0.153566 12.747 0.126916ZM10.6315 19.7576C9.67071 19.7576 8.7315 19.4727 7.93263 18.9389C7.13375 18.4052 6.51111 17.6464 6.14343 16.7587C5.77575 15.8712 5.67955 14.8944 5.86698 13.952C6.05443 13.0098 6.5171 12.1441 7.19648 11.4647C7.87587 10.7853 8.74145 10.3227 9.68379 10.1352C10.6261 9.9478 11.6029 10.044 12.4905 10.4117C13.3782 10.7794 14.1369 11.402 14.6707 12.2009C15.2045 12.9997 15.4894 13.939 15.4894 14.8997C15.4877 16.1877 14.9753 17.4223 14.0646 18.333C13.154 19.2436 11.9194 19.756 10.6315 19.7576ZM19.4551 19.5584H17.0757V8.4556H5.97162V6.07616H19.4551V19.5584Z" fill="black"/>
<path d="M10.6347 12.4213C10.1445 12.4213 9.66531 12.5666 9.25773 12.8389C8.85017 13.1113 8.53249 13.4983 8.34491 13.9512C8.15733 14.4041 8.10824 14.9025 8.20387 15.3832C8.29951 15.8639 8.53555 16.3055 8.88216 16.6522C9.22879 16.9988 9.6704 17.2349 10.1512 17.3305C10.6319 17.4261 11.1303 17.377 11.5831 17.1894C12.036 17.0019 12.4231 16.6842 12.6955 16.2766C12.9678 15.869 13.1131 15.3899 13.1131 14.8997C13.1125 14.2426 12.851 13.6125 12.3864 13.1479C11.9218 12.6833 11.2918 12.4219 10.6347 12.4213Z" fill="black"/>
</g>
<defs>
<clipPath id="clip0_1_3632">
<rect width="100" height="25.6345" fill="white"/>
</clipPath>
</defs>
</svg>

<svg xmlns="http://www.w3.org/2000/svg" width="246.154" height="64" fill="none" viewBox="0 0 100 26"><g fill="#000" clip-path="url(#a)"><path d="M36.255 6.126 31.156 19.56h2.607l1.084-3.141h5.308l1.066 3.14h2.626L38.938 6.127h-2.683Zm-.818 8.39c1.18-3.291 1.656-4.624 2.092-5.974.628 1.96 1.276 3.787 2.03 5.975h-4.122ZM49.983 9.898a3.644 3.644 0 0 0-2.963 1.46V6.126h-2.23V19.56h2.13v-1.238c.648.933 1.523 1.428 2.817 1.428 2.34 0 3.901-1.827 3.901-4.929 0-3.101-1.428-4.923-3.655-4.923Zm-.798 7.995c-1.409 0-2.227-1.16-2.227-3.172 0-1.807.952-2.95 2.303-2.95 1.27 0 2.055 1.162 2.055 3.064 0 2.004-.818 3.05-2.131 3.05v.008ZM58.32 11.514c.914 0 1.638.495 2.114 1.334l1.658-1.125c-.838-1.333-2.23-1.903-3.734-1.903-2.344 0-3.68 1.372-3.68 2.858 0 1.448.932 2.305 2.4 2.762l1.014.324c1.43.457 1.753.723 1.753 1.353 0 .57-.533.99-1.505.99-1.048 0-1.924-.571-2.419-1.543l-1.733 1.142c.799 1.2 2.114 2.134 4.06 2.134 2.363 0 3.83-1.276 3.83-3.03 0-1.523-.953-2.305-2.63-2.84l-1.014-.304c-1.22-.38-1.523-.647-1.523-1.218s.452-.934 1.408-.934ZM66.602 16.624v-4.748h1.835V10.09h-1.835V6.992h-2.217l-.043 3.098h-1.483v1.786h1.483v5.19c0 .878.134 1.547.534 2.005.4.458 1.015.687 1.945.687a6.724 6.724 0 0 0 1.665-.215v-1.776a2.768 2.768 0 0 1-.916.17c-.69.007-.968-.335-.968-1.313ZM71.827 11.548V10.09h-2.132v9.518h2.234v-4.442c0-1.015.167-1.685.496-2.18.414-.594 1.005-.953 2.03-.942.277.005.552.048.818.127v-2.08a2.64 2.64 0 0 0-.817-.128c-1.313.004-2.055.559-2.629 1.585ZM83.825 17.005V13.58c0-1.488-.2-2.268-.79-2.821-.635-.61-1.545-.915-2.841-.915-2.421 0-3.95 1.142-4.102 3.203l2.139.19c.114-1.048.628-1.64 1.792-1.64.591 0 1.048.127 1.314.4.267.273.363.61.363 1.142v.508c-1.506.096-3.336.363-4.27.782-1.124.515-1.735 1.316-1.735 2.538 0 1.696 1.22 2.784 2.955 2.784 1.352 0 2.382-.476 3.106-1.353.207.948.875 1.298 2.067 1.298a3.05 3.05 0 0 0 1.016-.152v-1.447c-.858.155-1.008-.349-1.014-1.09ZM81.7 15.576c-.02.533-.114 1.067-.42 1.506-.418.629-1.124.992-1.982.992-.991 0-1.45-.516-1.45-1.2 0-.535.23-.898.82-1.165.668-.323 1.946-.515 3.032-.572v.44ZM89.943 17.966c-1.465 0-2.342-1.104-2.342-3.198 0-2.113.99-3.084 2.284-3.084.894 0 1.58.419 1.848 1.675l2-.685c-.44-1.694-1.734-2.856-3.792-2.856-2.838 0-4.629 1.885-4.629 4.988 0 3.122 1.753 5.025 4.514 5.025 2.158 0 3.41-1.142 3.964-2.722l-2-.685c-.228 1.009-.837 1.542-1.847 1.542ZM98.029 16.624v-4.748h1.834V10.09h-1.834V6.992h-2.217l-.04 3.098H94.29v1.786h1.487v5.19c0 .878.135 1.547.535 2.005.4.458 1.015.687 1.945.687a6.726 6.726 0 0 0 1.656-.215v-1.776a2.766 2.766 0 0 1-.915.17c-.688.007-.968-.335-.968-1.313ZM12.747.127C2.595.1.05 2.632.024 12.784-.003 22.936 2.527 25.481 12.68 25.508c10.152.026 12.698-2.505 12.724-12.658C25.431 2.698 22.9.154 12.747.127Zm-2.115 19.63a4.858 4.858 0 1 1 4.857-4.857 4.864 4.864 0 0 1-4.857 4.858Zm8.823-.199h-2.38V8.456H5.973v-2.38h13.483v13.482Z"/><path d="M10.635 12.421a2.479 2.479 0 1 0 0 4.958 2.479 2.479 0 0 0 0-4.958Z"/></g><defs><clipPath id="a"><path fill="#fff" d="M0 0h100v25.634H0z"/></clipPath></defs></svg>
